src/24/panel/wechat-tray-unread.svg

<svg xmlns="http://www.w3.org/2000/svg" width="24" height="24" version="1.1">
 <defs>
  <style id="current-color-scheme" type="text/css">
   .ColorScheme-Text { color:#bebebe; } .ColorScheme-Highlight { color:#5294e2; }
  </style>
 </defs>
 <path style="fill:currentColor" class="ColorScheme-Text" d="m 11,4 a 7,6.5 0 0 0 -7,6.5 7,6.5 0 0 0 2,4.546875 L 6,18 7.3203125,16.019531 a 7,6.5 0 0 0 2.2617187,0.833985 C 9.2131044,16.143061 9,15.348082 9,14.5 9,12.060117 10.723041,10.045383 13.048828,9.3066406 A 1,1 0 0 1 13,9 1,1 0 0 1 14,8 1,1 0 0 1 15,9 c 1.061383,0 2.066598,0.2619524 2.943359,0.7167969 A 7,6.5 0 0 0 11,4 Z M 8,8 A 1,1 0 0 1 9,9 1,1 0 0 1 8,10 1,1 0 0 1 7,9 1,1 0 0 1 8,8 Z m 7,2 a 5,4.5 0 0 0 -5,4.5 5,4.5 0 0 0 5,4.5 5,4.5 0 0 0 1.009766,-0.0957 C 16.06218,17.303725 17.387708,16 19,16 c 0.231334,0 0.454974,0.0314 0.671875,0.08203 A 5,4.5 0 0 0 20,14.5 5,4.5 0 0 0 15,10 Z m -2,2 a 1,1 0 0 1 1,1 1,1 0 0 1 -1,1 1,1 0 0 1 -1,-1 1,1 0 0 1 1,-1 z m 4,0 a 1,1 0 0 1 1,1 1,1 0 0 1 -1,1 1,1 0 0 1 -1,-1 1,1 0 0 1 1,-1 z m 2,6 c -0.425919,0 -0.778472,0.248751 -0.925781,0.613281 L 19,20 19,18 Z"/>
 <circle style="fill:currentColor" class="ColorScheme-Highlight" cx="19" cy="19" r="2"/>
</svg>

<svg xmlns="http://www.w3.org/2000/svg" width="24" height="24"><path d="M11 4a7 6.5 0 0 0-7 6.5 7 6.5 0 0 0 2 4.547V18l1.32-1.98a7 6.5 0 0 0 2.262.834A5.081 5.081 0 0 1 9 14.5c0-2.44 1.723-4.455 4.049-5.193A1 1 0 0 1 13 9a1 1 0 0 1 1-1 1 1 0 0 1 1 1c1.061 0 2.067.262 2.943.717A7 6.5 0 0 0 11 4zM8 8a1 1 0 0 1 1 1 1 1 0 0 1-1 1 1 1 0 0 1-1-1 1 1 0 0 1 1-1zm7 2a5 4.5 0 0 0-5 4.5 5 4.5 0 0 0 5 4.5 5 4.5 0 0 0 1.01-.096C16.062 17.304 17.388 16 19 16c.231 0 .455.031.672.082A5 4.5 0 0 0 20 14.5a5 4.5 0 0 0-5-4.5zm-2 2a1 1 0 0 1 1 1 1 1 0 0 1-1 1 1 1 0 0 1-1-1 1 1 0 0 1 1-1zm4 0a1 1 0 0 1 1 1 1 1 0 0 1-1 1 1 1 0 0 1-1-1 1 1 0 0 1 1-1zm2 6a.983.983 0 0 0-.926.613L19 20v-2z" fill="currentColor" color="#bebebe"/><circle cx="19" cy="19" r="2" fill="currentColor" color="#5294e2"/></svg>
